X:1
T:Belarus, 77.77
T:Belarus, 77.77
T:H. O. Ward, 1900
T:Public Domain Courtesy of the Cyber Hymnal™
C:H. O. Ward, 1900
Z:Public Domain
Z:Courtesy of the Cyber Hymnal™
%%score ( 1 2 ) ( 3 4 )
L:1/8
Q:1/4=135
M:6/4
K:D
V:1 treble 
V:2 treble 
V:3 bass 
V:4 bass 
V:1
 D4 [DF]2 [FA]4 [GB]2 | [FA]2 [DF]2 [CE]2 D6 | [FA]4 [DF]2 [Fd]4 [FA]2 | ([GB]2 [FA]2) [DF]2 x6 | %4
 [CE]6 x6 | [CA]4 [DB]2 [Ec]4 [Ec]2 | (d2 c2) [DB]2 (A4 =G2) | [DF]2 [EG]2 [FA]2 B2 e2 [Gd]2 | %8
 (c2 B2) [Gc]2 [Fd]6 |] %9
V:2
 D4 x8 | x6 D6 | x12 | x12 | x12 | x12 | E4 C6 x2 | x6 G4 x2 | G4 x8 |] %9
V:3
 [D,F,]4 [D,A,]2 [D,D]4 [G,,D]2 | (D2 A,2) [A,,G,]2 [D,F,]6 | [D,A,]4 [D,A,]2 [D,A,]4 [D,D]2 | %3
 [D,D]4 [F,A,]2 A,6 | [A,,A,]4 [A,,A,]2 A,4 A,2 | (^G,2 A,2) E,2 (E,4 A,2) | %6
 [D,A,]4 [D,D]2 D2 B,2 [G,B,]2 | A,4 [A,,A,]2 [D,A,]6 | x12 |] %9
V:4
 x12 | A,,4 x8 | x12 | x6 A,6 | x6 A,4 A,2 | E,4 E,2 A,,6 | x6 G,4 x2 | A,4 x8 | x12 |] %9

